X: 26906
T: Minutemen, The
R: reel
M: 4/4
K: Dmajor
fdef d2A^A|BdeB B2DF|ED~D2 AGFG|Ac~c2 agfe|
fdef d2A^A|BdeB B2dF|ED~D2 AGFD|1 EA,CD ED ~D2:|2 EA,CD EDDF||
|:G3E FAAF|~E2DE FDDF|~G3B AGFD|EAAc edcA|
G3G F2AF|~E2DE FDDF|~G3B AGFD|1 EA,CD EDDF:|2 EA,CD ED ~D2||

